X:1
T:Credete per schernirmi
T:Simone Molinaro Genovese
T:Source : Canzonette a tre voci---Libro secondo---Venetia---R.Amadino---1600. Editor André Vierendeels (26/11/16).
T:Notes : Original clefs : C2, C3, C4 Editorial accidentals above the staff
T:Credete per schernirmi
T:©
T:©
T:©
T:©
C:Simone Molinaro
Z:©
%%score [ 1 2 3 ]
L:1/8
Q:1/4=120
M:4/4
K:C
V:1 treble nm="Soprano" snm="S"
V:2 treble nm="Alto" snm="A"
V:3 treble-8 nm="Tenor" snm="T"
V:1
 z2 E2 F3 E | F2 G2 A4 | A2 A2 GFGA | G2 F2 E2 D2 |[M:2/4] ^C2 D2 :: z2 A2 |[M:4/4] A2 A2 G2 A2 | %7
w: Cre- de- te|per scher- nir-|mi, e ri- * * *|* de- r'e fu-|gir- mi,|ch'io|deb- ba con- ten-|
 _B4 A4 | z2 A,2 B,2 C2 | DDEF G2 F2 | E4 D4 | z2 G4 F2 | E2 F4 G2 | A4 A2 c2- | cc c2 _B2 A2- | %15
w: tar- mi,|la- scian- do|poi, la- scian- do poi d'a-|mar- vi,|fa- te|quel che vi|pia- ce, sta-|* te pur dis- pie-|
 A2 G2 A4 | z2 G4 F2 | E4 D4 | z2 _B4 A2- | A2 G4 F2- | F2 E2 D4 | E4 z2 G2- | G2 G2 G4 | %23
w: * ta- ta,|e cru-|de- le,|e cru-|* de- l'et|_ in- gra-|ta, che|_ l'a- mar-|
 G2 F2 E2 A2 | c6 B2 | AG G4 ^F2 | G4 z2 D2 | D2 C2 D2 D2 | E4 D2 D2- | D2 C2 B,4 | A,2 A2 G2 F2 | %31
w: vi mi da con-|ten- to'e|pa- * * *|ce, che|quant' ha- ve- te'il|cor piu di|_ dia- man-|te, io son' o-|
 E2 A2 G3 G | G2 F2 E4 | D8 :| %34
w: gn'hor, io son' o-|gn'hor piu'a- man-|te.|
V:2
 z2 ^C2 D3 C | D2 E2 F4 | F2 F2 EDEF | E2 D2 ^C2 D2 |[M:2/4] E2 D2 :: z2 F2 |[M:4/4] F3 E D2 C2 | %7
w: Cre- de- te|per scher- nir-|mi, e ri- * * *|* de- r'e fu-|gir- mi,|ch'io|deb- ba con- ten-|
 D2 E2 F2 C2- | C2 D2 EE F2 | G2 A2 D2 D2- | D2 ^C2 D4 | z2 E4 D2 | ^C4 D2 E2 | F4 F2 A2- | %14
w: tar- mi, la- sci-|* an- do, la- scian-|do poi d'a- mar-|* * vi,|fa- te|quel che vi|pia- ce, sta-|
 AA G2 F2 E2 | D4 E4 | z2 E4 D2- | D2 C4 B,2 | z2 G4 F2- | F2 E4 D2- | D2 C4 B,2 | C4 E4- | %22
w: * te pur dis- pie-|ta- ta,|e cru-|* de- le,|e cru-|* de- l'et|_ in- gra-|ta, che|
 E2 D2 E4 | D2 D2 ^C3 D | E2 E2 E4- | E2 D2 C4 | D4 z2 B,2 | B,2 G,2 A,2 B,2 | C4 B,4 | %29
w: _ l'a- mar-|vi mi da _|_ con- ten-|* to'e pa-|ce, che|quant' ha- ve- te'il|cor piu|
 B,2 A,4 ^G,2 | A,4 z2 A2 | G2 F4 E2- | E2 D4 ^C2 | D8 :| %34
w: di dia- man-|te, io|son' o- gn'hor|_ piu'a- man-|te.|
V:3
 z2 A2 D3 A | D2 C2 F4 | F2 F2 c4- | c2 d2 A2 _B2 |[M:2/4] A2 D2 :: z2 d2 |[M:4/4] d3 c _B2 A2 | %7
w: Cre- de- te|per scher- nir-|mi, e ri-|* de- r'e fu-|gir- mi,|ch'io|deb- ba con- ten-|
 G4 F4- | F2 F2 G2 AA | _B2 A2 G2 D2 | A4 D4 | z2 C4 D2 | A4 _B2 G2 | F4 F2 f2- | ff e2 d2 c2 | %15
w: tar- mi,|_ la- scian- do, la-|scian- do poi d'a-|mar- vi,|fa- te|quel che vi|pia- ce, sta-|* te pur dis- pie-|
 _B4 A4 | E4 F4 | G8 | D4 F4 | G8- | G8 | C4 c4- | c2 B2 c4 | B2 d2 A4- | A2 A2 c4- | c2 B2 A4 | %26
w: ta- ta,|e cru-|de-|l'et in-|gra-||ta, che|_ l'a- mar-|vi mi da|_ con- ten-|* to'e pa-|
 G4 z2 G2 | G2 E2 F2 G2 | C4 G4 | G2 A2 E4 | A4 z2 A2 |"^b" c2 d2 B2 c2 | A8 | D8 :| %34
w: ce, che|quant' ha- ve- te'il|cor piu|di dia- man-|te, io|son' o- gn'hor piu'a-|man-|te.|

